assets/img/cds-data-streaming.svg

<svg fill="#f00" height="71" viewBox="0 0 82 71" width="82" xmlns="http://www.w3.org/2000/svg"><path d="m74.0847.5h-66.67623c-1.96456 0-3.84902.78054-5.23885 2.16962-1.389085 1.38992-2.16962 3.27433-2.16962 5.23885v40.91593c0 1.9646.780535 3.849 2.16962 5.2388 1.38992 1.3891 3.27434 2.1697 5.23885 2.1697h66.67623c1.9646 0 3.849-.7806 5.2388-2.1697 1.3891-1.3899 2.1697-3.2743 2.1697-5.2388v-40.91593c0-1.96456-.7806-3.84902-2.1697-5.23885-1.3899-1.38908-3.2743-2.16962-5.2388-2.16962zm3.7042 48.3202c0 .9831-.3902 1.9248-1.0848 2.6194-.6945.6945-1.6371 1.0848-2.6194 1.0848h-66.67623c-.98228 0-1.92489-.3903-2.61942-1.0848-.69454-.6946-1.08481-1.6363-1.08481-2.6194v-40.91173c0-.98228.39027-1.92489 1.08481-2.61942.69453-.69454 1.63714-1.08482 2.61942-1.08482h66.67623c.9823 0 1.9249.39028 2.6194 1.08482.6946.69453 1.0848 1.63714 1.0848 2.61942zm-27.9659-23.6119-12.7497-7.7789c-.7525-.4597-1.6438-.635-2.5136-.4961-.8707.1381-1.6628.5829-2.2342 1.2535-.5722.6706-.8864 1.523-.8864 2.4035v15.5709c0 .8814.3142 1.7339.8864 2.4035.5713.6706 1.3634 1.1154 2.2342 1.2544.8698.1389 1.7611-.0372 2.5136-.4962l12.7497-7.7788c1.1022-.6731 1.7744-1.8712 1.7744-3.162s-.6722-2.4888-1.7744-3.1619zm-1.9298 3.1619-12.7498 7.7789v-15.5635l12.7574 7.7789zm-32.502 36.1364c0 .4912-.1952.9625-.5424 1.3098-.3473.3472-.8186.5424-1.3098.5424h-11.6865c-1.022794 0-1.85211888-.8294-1.85211888-1.8522 0-1.0227.82932488-1.8521 1.85211888-1.8521h11.6865c.4912 0 .9625.1952 1.3098.5424.3472.3473.5424.8186.5424 1.3097zm64.2504-1.8521h-50.7289c-.5929-1.8248-2.0233-3.2553-3.8482-3.8481-1.824-.5929-3.8226-.2762-5.3745.8516-1.552 1.1278-2.4706 2.9304-2.4706 4.8485 0 1.9182.9186 3.7208 2.4706 4.8485 1.5519 1.1278 3.5503 1.4445 5.3745.8517 1.8248-.5929 3.2553-2.0233 3.8482-3.8482h50.7289c1.0228 0 1.8522-.8293 1.8522-1.8521s-.8294-1.8521-1.8522-1.8521zm-56.3996 4.1524c-.9269 0-1.7628-.5581-2.1167-1.4148-.3547-.8557-.1587-1.8413.4961-2.4962.6557-.6557 1.6405-.8516 2.4971-.4969.8558.3547 1.4139 1.1898 1.4139 2.1167-.0017 1.2642-1.0261 2.2894-2.2903 2.2911z" fill="#e11d48" stroke="#fff"/></svg>

<svg width="82" height="71" viewBox="0 0 82 71" fill="red" xmlns="http://www.w3.org/2000/svg">
    <path 
        d="M74.0847 0.5H7.40847C5.44391 0.5 3.55945 1.28054 2.16962 2.66962C0.780535 4.05954 0 5.94395 0 7.90847V48.8244C0 50.789 0.780535 52.6734 2.16962 54.0632C3.55954 55.4523 5.44396 56.2329 7.40847 56.2329H74.0847C76.0493 56.2329 77.9337 55.4523 79.3235 54.0632C80.7126 52.6733 81.4932 50.7889 81.4932 48.8244V7.90847C81.4932 5.94391 80.7126 4.05945 79.3235 2.66962C77.9336 1.28054 76.0492 0.5 74.0847 0.5ZM77.7889 48.8202C77.7889 49.8033 77.3987 50.745 76.7041 51.4396C76.0096 52.1341 75.067 52.5244 74.0847 52.5244H7.40847C6.42619 52.5244 5.48358 52.1341 4.78905 51.4396C4.09451 50.745 3.70424 49.8033 3.70424 48.8202V7.90847C3.70424 6.92619 4.09451 5.98358 4.78905 5.28905C5.48358 4.59451 6.42619 4.20423 7.40847 4.20423H74.0847C75.067 4.20423 76.0096 4.59451 76.7041 5.28905C77.3987 5.98358 77.7889 6.92619 77.7889 7.90847V48.8202ZM49.823 25.2083L37.0733 17.4294C36.3208 16.9697 35.4295 16.7944 34.5597 16.9333C33.689 17.0714 32.8969 17.5162 32.3255 18.1868C31.7533 18.8574 31.4391 19.7098 31.4391 20.5903V36.1612C31.4391 37.0426 31.7533 37.8951 32.3255 38.5647C32.8968 39.2353 33.6889 39.6801 34.5597 39.8191C35.4295 39.958 36.3208 39.7819 37.0733 39.3229L49.823 31.5441C50.9252 30.871 51.5974 29.6729 51.5974 28.3821C51.5974 27.0913 50.9252 25.8933 49.823 25.2202V25.2083ZM47.8932 28.3702L35.1434 36.1491V20.5856L47.9008 28.3645L47.8932 28.3702ZM15.3912 64.5066C15.3912 64.9978 15.196 65.4691 14.8488 65.8164C14.5015 66.1636 14.0302 66.3588 13.539 66.3588H1.8525C0.829706 66.3588 0.000381121 65.5294 0.000381121 64.5066C0.000381121 63.4839 0.829706 62.6545 1.8525 62.6545H13.539C14.0302 62.6545 14.5015 62.8497 14.8488 63.1969C15.196 63.5442 15.3912 64.0155 15.3912 64.5066ZM79.6416 62.6545H28.9127C28.3198 60.8297 26.8894 59.3992 25.0645 58.8064C23.2405 58.2135 21.2419 58.5302 19.69 59.658C18.138 60.7858 17.2194 62.5884 17.2194 64.5065C17.2194 66.4247 18.138 68.2273 19.69 69.355C21.2419 70.4828 23.2403 70.7995 25.0645 70.2067C26.8893 69.6138 28.3198 68.1834 28.9127 66.3585H79.6416C80.6644 66.3585 81.4938 65.5292 81.4938 64.5064C81.4938 63.4836 80.6644 62.6543 79.6416 62.6543V62.6545ZM23.242 66.8069C22.3151 66.8069 21.4792 66.2488 21.1253 65.3921C20.7706 64.5364 20.9666 63.5508 21.6214 62.8959C22.2771 62.2402 23.2619 62.0443 24.1185 62.399C24.9743 62.7537 25.5324 63.5888 25.5324 64.5157C25.5307 65.7799 24.5063 66.8051 23.2421 66.8068L23.242 66.8069Z" 
        fill="#e11d48" 
        stroke="white" 
    />
</svg>
